X: 1
T: John Egan's
M: 4/4
L: 1/8
R: reel
K: Dmix
ed |: cA A2 GEDE | GBAF G3A | B2 AB GEDG | Bdd^c dfed :|
|: cdef g3 e | a2 af g2 ed | cdef g2 fg |1 afge dfed :|2 afge d2 ed||
